.local/share/icons/Gruvbox-Plus-Dark/panel/22/minetime-tray.svg

<svg xmlns="http://www.w3.org/2000/svg" width="22" height="22" version="1.1">
 <defs>
  <style id="current-color-scheme" type="text/css">
   .ColorScheme-Text { color:#ebdbb2; } .ColorScheme-Highlight { color:#458588; }
  </style>
 </defs>
 <path style="fill:currentColor" class="ColorScheme-Text" d="M 11 3 C 6.568 3 3 6.568 3 11 C 3 15.432 6.568 19 11 19 C 15.432 19 19 15.432 19 11 C 19 6.568 15.432 3 11 3 z M 11 5 C 14.324 5 17 7.676 17 11 C 17 14.324 14.324 17 11 17 C 7.676 17 5 14.324 5 11 C 5 7.676 7.676 5 11 5 z M 8.3164062 7 L 7.7753906 7.3144531 L 7.6015625 7.4140625 L 7.0019531 7.7597656 L 7 7.7617188 L 7.0019531 7.7636719 L 7.0019531 8.3203125 L 7.0019531 14.199219 L 8 15 L 9 14.199219 L 9 9.96875 L 11 11.140625 L 13 9.96875 L 13 14.199219 L 14 15 L 14.998047 14.199219 L 14.998047 8.3203125 L 14.998047 7.7636719 L 15 7.7617188 L 14.998047 7.7597656 L 14.398438 7.4140625 L 14.224609 7.3144531 L 13.683594 7 L 11 8.6972656 L 8.3164062 7 z"/>
</svg>

<svg width="22" height="22" version="1.1" xmlns="http://www.w3.org/2000/svg">
  <defs>
    <style id="current-color-scheme" type="text/css">.ColorScheme-Text { color:#ebdbb2; } .ColorScheme-Highlight { color:#458588; } .ColorScheme-NeutralText { color:#fe8019; } .ColorScheme-PositiveText { color:#689d6a; } .ColorScheme-NegativeText { color:#fb4934; }</style>
  </defs>
  <path class="ColorScheme-Text" d="m11 3c-4.432 0-8 3.568-8 8s3.568 8 8 8 8-3.568 8-8-3.568-8-8-8zm0 2c3.324 0 6 2.676 6 6s-2.676 6-6 6-6-2.676-6-6 2.676-6 6-6zm-2.684 2-0.541 0.3145-0.1738 0.09961-0.5996 0.3457-0.001953 0.001953 0.001953 0.001953v0.5566 5.879l0.998 0.8008 1-0.8008v-4.23l2 1.172 2-1.172v4.23l1 0.8008 0.998-0.8008v-5.879-0.5566l0.001953-0.001953-0.001953-0.001953-0.5996-0.3457-0.1738-0.09961-0.541-0.3145-2.684 1.697-2.684-1.697z" fill="currentColor"/>
</svg>
